X: 226
T: Jankinata
B: incoming
M:11/8
L:1/8
Q: 1/4=100
K:Em
V:1 
"G"A2 AB B3 GA G2|"F"AB GA "G7" G2=F "C"E4|"Am"G2 G2 GA2 FG3|"Em" G=F E2 "Am"E3 "Em" E4|
V:2 
G2 G2 G3 G4|=F2 F2 F3 E4|E2 E2 E3 E4|E2 E2 E3 E4| 
W: Transcribed by Birgitt Karlson
W: http://www-linux.gsi.de/~karlson/index_e.htm
% abcbook-tune_id 63cb082ff761fe7e4d1f3683
% abcbook-tune_composer_id 
% abcbook-boost 0
% abcbook-difficulty 0
% abcbook-tags balkan dances
% abcbook-tablature 
% abcbook-transpose 
% abcbook-tuning 
% abcbook-lastupdated 1674250287866
% abcbook-soundfonts 
% abcbook-repeats 1


